Newaita-dark/.DP/22/battery-good.svg

<?xml version="1.0" encoding="UTF-8"?>
<svg xmlns="http://www.w3.org/2000/svg" xmlns:xlink="http://www.w3.org/1999/xlink" width="22pt" height="22pt" viewBox="0 0 22 22" version="1.1">
<g id="surface1">
<path style=" stroke:none;fill-rule:nonzero;fill:rgb(74.117649%,74.117649%,74.117649%);fill-opacity:1;" d="M 2.730469 4.265625 C 1.972656 4.265625 1.363281 4.875 1.363281 5.628906 L 1.363281 16.542969 C 1.363281 17.300781 1.972656 17.910156 2.730469 17.910156 L 18.191406 17.910156 C 18.949219 17.910156 19.554688 17.300781 19.554688 16.542969 L 19.554688 14.269531 L 20.011719 14.269531 C 20.515625 14.269531 20.921875 13.863281 20.921875 13.359375 L 20.921875 8.8125 C 20.921875 8.308594 20.515625 7.902344 20.011719 7.902344 L 19.554688 7.902344 L 19.554688 5.628906 C 19.554688 4.875 18.949219 4.265625 18.191406 4.265625 Z M 3.636719 5.628906 L 17.28125 5.628906 C 17.785156 5.628906 18.191406 6.035156 18.191406 6.539062 L 18.191406 15.636719 C 18.191406 16.140625 17.785156 16.542969 17.28125 16.542969 L 3.636719 16.542969 C 3.132812 16.542969 2.730469 16.140625 2.730469 15.636719 L 2.730469 6.539062 C 2.730469 6.035156 3.132812 5.628906 3.636719 5.628906 Z M 3.636719 5.628906 "/>
<path style=" stroke:none;fill-rule:nonzero;fill:rgb(74.117649%,74.117649%,74.117649%);fill-opacity:1;" d="M 4.546875 6.992188 L 5.457031 6.992188 C 5.707031 6.992188 5.914062 7.175781 5.914062 7.402344 L 5.914062 14.769531 C 5.914062 14.996094 5.707031 15.179688 5.457031 15.179688 L 4.546875 15.179688 C 4.296875 15.179688 4.09375 14.996094 4.09375 14.769531 L 4.09375 7.402344 C 4.09375 7.175781 4.296875 6.992188 4.546875 6.992188 Z M 4.546875 6.992188 "/>
<path style=" stroke:none;fill-rule:nonzero;fill:rgb(74.117649%,74.117649%,74.117649%);fill-opacity:1;" d="M 8.1875 6.992188 L 9.097656 6.992188 C 9.347656 6.992188 9.550781 7.175781 9.550781 7.402344 L 9.550781 14.769531 C 9.550781 14.996094 9.347656 15.179688 9.097656 15.179688 L 8.1875 15.179688 C 7.933594 15.179688 7.730469 14.996094 7.730469 14.769531 L 7.730469 7.402344 C 7.730469 7.175781 7.933594 6.992188 8.1875 6.992188 Z M 8.1875 6.992188 "/>
<path style=" stroke:none;fill-rule:nonzero;fill:rgb(74.117649%,74.117649%,74.117649%);fill-opacity:1;" d="M 11.824219 6.992188 L 12.734375 6.992188 C 12.984375 6.992188 13.1875 7.175781 13.1875 7.402344 L 13.1875 14.769531 C 13.1875 14.996094 12.984375 15.179688 12.734375 15.179688 L 11.824219 15.179688 C 11.574219 15.179688 11.371094 14.996094 11.371094 14.769531 L 11.371094 7.402344 C 11.371094 7.175781 11.574219 6.992188 11.824219 6.992188 Z M 11.824219 6.992188 "/>
<path style=" stroke:none;fill-rule:nonzero;fill:rgb(74.117649%,74.117649%,74.117649%);fill-opacity:0.392157;" d="M 15.464844 6.992188 L 16.371094 6.992188 C 16.625 6.992188 16.828125 7.175781 16.828125 7.402344 L 16.828125 14.769531 C 16.828125 14.996094 16.625 15.179688 16.371094 15.179688 L 15.464844 15.179688 C 15.210938 15.179688 15.007812 14.996094 15.007812 14.769531 L 15.007812 7.402344 C 15.007812 7.175781 15.210938 6.992188 15.464844 6.992188 Z M 15.464844 6.992188 "/>
</g>
</svg>

<svg xmlns="http://www.w3.org/2000/svg" width="22pt" height="22pt" viewBox="0 0 22 22"><g fill="#bdbdbd"><path d="M2.73 4.266c-.757 0-1.367.609-1.367 1.363v10.914c0 .758.61 1.367 1.367 1.367h15.461a1.36 1.36 0 0 0 1.364-1.367V14.27h.457c.504 0 .91-.407.91-.91V8.812a.909.909 0 0 0-.91-.91h-.457V5.628a1.36 1.36 0 0 0-1.364-1.363zm.907 1.363H17.28c.504 0 .91.406.91.91v9.098a.905.905 0 0 1-.91.906H3.637a.902.902 0 0 1-.907-.906V6.539c0-.504.403-.91.907-.91zm0 0"/><path d="M4.547 6.992h.91c.25 0 .457.184.457.41v7.368c0 .226-.207.41-.457.41h-.91c-.25 0-.453-.184-.453-.41V7.402c0-.226.203-.41.453-.41zm0 0M8.188 6.992h.91c.25 0 .453.184.453.41v7.368c0 .226-.203.41-.453.41h-.91c-.254 0-.458-.184-.458-.41V7.402c0-.226.204-.41.457-.41zm0 0M11.824 6.992h.91c.25 0 .454.184.454.41v7.368c0 .226-.204.41-.454.41h-.91c-.25 0-.453-.184-.453-.41V7.402c0-.226.203-.41.453-.41zm0 0"/><path d="M15.465 6.992h.906c.254 0 .457.184.457.41v7.368c0 .226-.203.41-.457.41h-.906c-.254 0-.457-.184-.457-.41V7.402c0-.226.203-.41.457-.41zm0 0" fill-opacity=".392"/></g></svg>
